X:1
T:Courage, 87.87 D
T:Arthur Seymour Sullivan, 1871
T:Courage, 87.87 D
T:Public Domain
C:Arthur Seymour Sullivan, 1871
Z:Public Domain
%%score ( 1 2 ) ( 3 4 )
L:1/8
M:4/4
K:Ab
V:1 treble 
V:2 treble 
V:3 bass 
V:4 bass 
V:1
 [CE]2 [CE]2 [EA]2 [EA]2 | (A>G) (F>G) [CA]2 [CE]2 | F2 [=EG]2 [FA]2 [GB]2 | [Ac]2 [Ae]2 [GB]4 | %4
 [FB]3 [FB] [EB]2 [EG]2 | E2 [EF]2 [EG]2 [EA]2 | [EB]2 [Ec]2 [F=d]2 [Ee]2 | E2 [=DF]2 E4 | %8
 [EB]3 [Ec] [EB]2 E2 | [Ec]3 [Ed] [Ec]2 [EA]2 | [Ee]2 [Ed]2 [Ec]2 [EB]2 | E2 =D-[DB] [EG]4 | %12
 [CE]2 [CE]2 [EA]2 [EA]2 | (A>G) (F>G) [CA]2 [CE]2 | [=Ec]3 [Ec] [Fc]4 | [Ge]3 [Ge] [Ae]4 | %16
 [Af]2 [Ae]2 [Gd]2 (3(cBA) | [EA]2 [EG]2 [EA]4 |] %18
V:2
 x8 | D2 D2 x4 | F2 x6 | x8 | x8 | E2 x6 | x8 | E2 E4 x2 | x6 E2 | x8 | x8 | A3 x5 | x8 | %13
 D2 D2 x4 | x8 | x8 | x6 A2 | x8 |] %18
V:3
 [A,,A,]2 [A,,A,]2 [C,A,]2 [C,A,]2 | [E,B,]2 [E,B,]2 [A,,A,]2 [A,,A,]2 | %2
 [D,A,]2 [C,C]2 [F,C]2 [E,E]2 | [A,E]2 [C,E]2 [E,E]4 | [=D,B,]3 [D,B,] [E,G,]2 [G,,B,]2 | %5
 [C,G,]2 [C,A,]2 [B,,B,]2 [A,,C]2 | [G,,B,]2 [F,,A,]2 [B,,A,]2 [C,G,]2 | %7
 [B,,G,]2 [B,,A,]2 [E,G,]4 | [G,B,]3 [A,C] [G,B,]2 [E,G,]2 | [A,C]3 [B,D] [A,C]2 [A,C]2 | %10
 [C,A,]2 [E,G,]2 A,2 [G,B,]2 | [F,C]2 [B,,B,]2 [E,B,]4 | [A,,A,]2 [A,,A,]2 [C,A,]2 [C,A,]2 | %13
 [E,B,]2 [E,B,]2 [A,,A,]2 [A,,A,]2 | [C,G,]3 [C,G,] [F,A,]4 | [E,B,]3 [E,B,] [A,C]4 | %16
 D2 [CE]2 [B,F]2 (A,C,) | [E,B,]2 [E,B,]2 [A,C]4 |] %18
V:4
 x8 | x8 | x8 | x8 | x8 | x8 | x8 | x8 | x8 | x8 | x4 A,2 x2 | x8 | x8 | x8 | x8 | x8 | x6 E2 | %17
 x8 |] %18

